X:1
T:Josie-O
L:1/4
M:4/4
R:Reel
K:G
|: D/E/ G B2| AB d2| ed B/A/G/B/ | AG D2 |
D/E/ G B2| AB d2| ed B/A/G/B/ | AG G2 :|
||d/e/ g g/e/g | b2b>a | bage | d>ed z|
d/e/ g g/e/g | b2b>a | bage | d>ed z||
||edBd | e/d/e/f/ g2 | edB G/B/ | AGG B/d/ |
edBd | e/d/e/f/ g2 | edB G/B/ | AGG2||